icons/svg/temperature-celsius.svg

﻿<?xml version="1.0" encoding="utf-8"?>
<!DOCTYPE svg PUBLIC "-//W3C//DTD SVG 1.1//EN" "http://www.w3.org/Graphics/SVG/1.1/DTD/svg11.dtd">
<svg xmlns="http://www.w3.org/2000/svg" xmlns:xlink="http://www.w3.org/1999/xlink" version="1.1" baseProfile="full" width="24" height="24" viewBox="0 0 24.00 24.00" enable-background="new 0 0 24.00 24.00" xml:space="preserve">
	<path fill="#000000" fill-opacity="1" stroke-width="0.2" stroke-linejoin="round" d="M 16.5,5C 18.0514,5 19.4927,5.47103 20.6889,6.27787L 19.5306,9.17349C 18.7309,8.44451 17.6674,8 16.5,8C 14.0147,8 12,10.0147 12,12.5C 12,14.9853 14.0147,17 16.5,17C 17.5269,17 18.4735,16.656 19.2308,16.077L 20.3702,18.9256C 19.2404,19.6076 17.916,20 16.5,20C 12.3579,20 9,16.6421 9,12.5C 9,8.35787 12.3579,5 16.5,5 Z M 6,3C 7.65685,3 9,4.34315 9,6C 9,7.65686 7.65685,9 6,9C 4.34315,9 3,7.65686 3,6C 3,4.34315 4.34315,3 6,3 Z M 6,5C 5.44771,5 5,5.44772 5,6C 5,6.55229 5.44771,7 6,7C 6.55228,7 7,6.55229 7,6C 7,5.44772 6.55228,5 6,5 Z "/>
</svg>

<svg xmlns="http://www.w3.org/2000/svg" version="1.1" baseProfile="full" width="24" height="24" viewBox="0 0 24.00 24.00" xml:space="preserve"><path fill="#000" fill-opacity="1" stroke-width=".2" stroke-linejoin="round" d="M16.5 5c1.55 0 2.993.47 4.19 1.278l-1.16 2.895C18.73 8.445 17.668 8 16.5 8c-2.485 0-4.5 2.015-4.5 4.5s2.015 4.5 4.5 4.5c1.027 0 1.974-.344 2.73-.923l1.14 2.85C19.24 19.606 17.916 20 16.5 20 12.358 20 9 16.642 9 12.5 9 8.358 12.358 5 16.5 5zM6 3c1.657 0 3 1.343 3 3S7.657 9 6 9 3 7.657 3 6s1.343-3 3-3zm0 2c-.552 0-1 .448-1 1s.448 1 1 1 1-.448 1-1-.448-1-1-1z"/></svg>
